!!!OTL: Nouo anno Domini
**kern
*staff1
=1-
*clefF4
*k[]
*met(c|)
*M2/2
1D
1AA
=2
1.D
4C/
4BB/
=3
1C
2D\
1C
2D\
1AA
=4
0D
!!linebreak:original
=5
1D
1D
=6
1C
1AA
=7
1E
2F\
1G
2A\
1E
=8
0AA
=9
!!linebreak:original
1G
2A\
2G\
=10
1F
1D
=11
2D\
1AA
2C/
=12
1D
0AA;
=13
!!linebreak:original
1D
1F
=14
1C
2D\
1C
2D\
1AA
=15
0D
==
*-
!!title: @{OTL}, @{GTL}, ed. @{ENC}
!!!pag:
!!!GTL: Hymnbook D
!!!EFL: 
!!!YEM: Creative Commons CC/BY/NC/SA 4.0
!!!ENC: Marcin Konik
!!!END: 2015-0m-dd
!!!EED: Marcin Konik
!!!EEV: 
!!!ONB: Encoded in vim by Marcin Konik
!!!CharacterEncoding: utf-8
!!!RDF**kern: l=long note in original notation
!!!RDF**kern: i=editorial accidental
!!muse2ps: z14jc180F
!!!COM: Anonim
!!!CDT: [?]
!!!TXO: Polish
!!!ODT: 
!!!GTL: Hymnbook D
!!!ARL: Opactwo św. Wojciecha, Staniątki 
!!!voices:	1
